X: 812
T: The Girls of Banbridge
N:"Collected by J.O'Neill"
B:O'Neill's 812
Z:Transcribed by Dan G. Petersen, dangp@post6.tele.dk
M:6/8
L:1/8
K:D
B|AFA dcB|BAG FED|FAD FED|CDE EFG|
AFA dcB|BAG FED|(f<a)f gec|ded d2:|
B|AFA dfa|agf efg|(f<a)g fed|cde e2A|
AFA dfa|agf efg|(f<a)g gec|ded d2:|


